packages/icons/general/Minds.svg

<svg width="24" height="24" viewBox="0 0 24 24" xmlns="http://www.w3.org/2000/svg">
<g>
        <g clip-path="url(#clip0)">
            <path
                d="M6.08588 23.9151C5.15758 23.9047 4.23801 23.7344 3.36753 23.4118C2.73187 23.1768 2.15676 22.8027 1.68424 22.3169C1.19712 21.8454 0.822514 21.2701 0.588235 20.6339C0.265824 19.7634 0.0958076 18.8439 0.0856471 17.9158C0.0143529 16.3727 0 15.9099 0 12C0 8.09012 0.0157647 7.62894 0.0849412 6.08471C0.0963347 5.15689 0.26656 4.23788 0.588235 3.36753C0.823654 2.73176 1.19773 2.15642 1.68329 1.68329C2.15523 1.19662 2.73061 0.822358 3.36682 0.588235C4.2373 0.265557 5.15687 0.0953008 6.08518 0.0849412C7.62871 0.0143529 8.09224 0 12 0C15.9078 0 16.3711 0.0157647 17.9153 0.0849412C18.8433 0.0962542 19.7626 0.266481 20.6332 0.588235C21.2691 0.822667 21.8443 1.1968 22.3165 1.68306C22.8029 2.15535 23.1772 2.73073 23.4118 3.36682C23.7345 4.23729 23.9049 5.15686 23.9153 6.08518C23.9859 7.62941 24.0002 8.09176 24.0002 12.0005C24.0002 15.9092 23.9859 16.3715 23.9153 17.9158C23.9041 18.8439 23.7338 19.7633 23.4118 20.6339C23.1682 21.2652 22.7951 21.8386 22.3166 22.317C21.838 22.7954 21.2646 23.1683 20.6332 23.4118C19.7627 23.7345 18.8431 23.9049 17.9148 23.9153C16.372 23.9859 15.9082 24.0002 11.9995 24.0002C8.09082 24.0002 7.62847 23.9866 6.08565 23.9153"
                fill="#21252A"
            />
            <path d="M10.791 18.7554L10.6973 20.0932L10.791 18.7554Z" fill="#656565" />
            <path d="M9.64062 19.6319L10.8008 18.6631L11.9611 20.5546L9.64062 19.6319Z" fill="#656565" />
            <path d="M9.64062 16.772V19.6323L10.8008 18.6634L9.64062 16.772Z" fill="#787778" />
            <path d="M13.1212 18.6631L11.9609 20.5546L14.2814 19.6319L13.1212 18.6631Z" fill="#5C5C5C" />
            <path d="M14.2813 19.632L13.1211 18.6632L14.2813 16.7717V19.632Z" fill="#787778" />
            <path d="M9.64062 16.772H14.2815L11.9611 20.5549L9.64062 16.772Z" fill="#4A4A4A" />
            <path d="M10.1035 8.05249L15.0228 10.0824L11.4958 12.8965L10.1035 8.05249Z" fill="#FED12F" />
            <path d="M13.8164 4.63843L16.6009 7.49871L15.023 10.0822L13.8164 4.63843Z" fill="#FED12F" />
            <path d="M9.64062 16.7717L14.7456 15.2954L14.2815 16.7717H9.64062Z" fill="#FED12F" />
            <path d="M9.17578 15.2954L11.4962 12.8965L9.63987 16.7717L9.17578 15.2954Z" fill="#FED12F" />
            <path d="M7.32031 7.49871L10.1048 4.63843V8.05231L7.32031 7.49871Z" fill="#FED12F" />
            <path d="M11.498 12.8964L14.7467 15.2954L15.0251 10.0823L11.498 12.8964Z" fill="#FFF3CB" />
            <path d="M11.4962 12.8965L7.04102 12.1122L9.17581 15.2954L11.4962 12.8965Z" fill="#FFF3CB" />
            <path d="M10.1035 8.05249L13.8162 4.63861L15.0228 10.0824L10.1035 8.05249Z" fill="#FFDD63" />
            <path d="M7.04102 12.1121L10.104 8.05231L11.4962 12.8963L7.04102 12.1121Z" fill="#FFEDAC" />
            <path d="M9.63948 16.7718L11.4958 12.8966L14.7444 15.2955L9.63948 16.7718Z" fill="#FFDD63" />
            <path d="M14.744 15.2953L15.0224 10.0822L16.8788 12.1121L14.744 15.2953Z" fill="#FFDD63" />
            <path d="M7.04167 12.1122L7.32012 7.49888L10.1046 8.05248L7.04167 12.1122Z" fill="#FFDD63" />
            <path d="M15.0249 10.0824L16.6028 7.49897L16.8813 12.1123L15.0249 10.0824Z" fill="#FEE382" />
            <path d="M13.8176 4.63866L10.1049 8.05255L10.1049 4.63866L13.8176 4.63866Z" fill="#FEF1C0" />
        </g>
        <defs>
            <clipPath id="clip0">
                <rect width="24" height="24" fill="white" />
            </clipPath>
        </defs>
    </g>
</svg>

<svg xmlns="http://www.w3.org/2000/svg" width="24" height="24">
    <g clip-path="url(#Minds_svg__a)">
        <path fill="#21252A" d="M6.086 23.915a8.083 8.083 0 0 1-2.718-.503 4.549 4.549 0 0 1-1.684-1.095 4.512 4.512 0 0 1-1.096-1.683 8.08 8.08 0 0 1-.502-2.718C.014 16.373 0 15.91 0 12c0-3.91.016-4.371.085-5.915a8.126 8.126 0 0 1 .503-2.717 4.565 4.565 0 0 1 1.095-1.685A4.52 4.52 0 0 1 3.367.588 8.08 8.08 0 0 1 6.085.085C7.63.015 8.092 0 12 0s4.371.016 5.915.085a8.126 8.126 0 0 1 2.718.503 4.531 4.531 0 0 1 1.684 1.095c.486.472.86 1.048 1.095 1.684.323.87.493 1.79.503 2.718.07 1.544.085 2.007.085 5.916 0 3.908-.014 4.37-.085 5.915a8.118 8.118 0 0 1-.503 2.718 4.848 4.848 0 0 1-2.779 2.778 8.06 8.06 0 0 1-2.718.503c-1.543.07-2.007.085-5.915.085-3.91 0-4.372-.013-5.914-.085"/>
        <path fill="#656565" d="m10.791 18.755-.094 1.338.094-1.338Zm-1.151.877 1.16-.969 1.161 1.892-2.32-.923Z"/>
        <path fill="#787778" d="M9.64 16.772v2.86l1.16-.969-1.16-1.891Z"/>
        <path fill="#5C5C5C" d="m13.121 18.663-1.16 1.892 2.32-.923-1.16-.969Z"/>
        <path fill="#787778" d="m14.281 19.632-1.16-.969 1.16-1.891v2.86Z"/>
        <path fill="#4A4A4A" d="M9.64 16.772h4.641l-2.32 3.783-2.32-3.783Z"/>
        <path fill="#FED12F" d="m10.104 8.052 4.919 2.03-3.527 2.814-1.393-4.844Zm3.712-3.414 2.785 2.86-1.578 2.584-1.207-5.444ZM9.64 16.772l5.106-1.477-.465 1.477h-4.64Z"/>
        <path fill="#FED12F" d="m9.176 15.295 2.32-2.399-1.856 3.876-.464-1.477ZM7.32 7.499l2.785-2.86v3.413L7.32 7.5Z"/>
        <path fill="#FFF3CB" d="m11.498 12.896 3.249 2.4.278-5.214-3.527 2.814Zm-.002 0-4.455-.784 2.135 3.183 2.32-2.399Z"/>
        <path fill="#FFDD63" d="m10.104 8.052 3.712-3.413 1.207 5.443-4.92-2.03Z"/>
        <path fill="#FFEDAC" d="m7.041 12.112 3.063-4.06 1.392 4.844-4.455-.784Z"/>
        <path fill="#FFDD63" d="m9.64 16.772 1.856-3.875 3.248 2.399-5.105 1.476Zm5.104-1.477.278-5.213 1.857 2.03-2.135 3.183Zm-7.702-3.183L7.32 7.5l2.785.553-3.063 4.06Z"/>
        <path fill="#FEE382" d="M15.025 10.082 16.603 7.5l.278 4.613-1.856-2.03Z"/>
        <path fill="#FEF1C0" d="m13.818 4.639-3.713 3.414V4.639h3.713Z"/>
    </g>
    <defs>
        <clipPath id="Minds_svg__a">
            <path fill="#fff" d="M0 0h24v24H0z"/>
        </clipPath>
    </defs>
</svg>
